!!!COM: Gomółka, Mikołaj
!!!CDT: ~1535-after 1591
!!!OTL: O który siedzisz
!!!OTL@LAT: Conserva me Domine
!!!AGn: Motet; Psalm
!!!SCn: Gom2016
!!!SCn: Gom2016
!!!voices: 4
**kern	**kern	**kern	**kern
*staff4	*staff3	*staff2	*staff1
*Ivox	*Ivox	*Ivox	*Ivox
*I"Bassus	*I"Tenor	*I"Altus	*I"Cantus
*I'B	*I'T	*I'A	*I'C
*clefF4	*clefGv2	*clefG2	*clefG2
*k[b-]	*k[b-]	*k[b-]	*k[b-]
*M2/1	*M2/1	*M2/1	*M2/1
*met(C|)	*met(C|)	*met(C|)	*met(C|)
=1-	=1-	=1-	=1-
1G	1B-	1d	1g
2E-	2e-	4g	2b-
.	.	4f	.
2C	2e-	4g	2cc
.	.	4a	.
=2	=2	=2	=2
4G	2d	1b-	2.dd
4F	.	.	.
4G	1g	.	.
4A	.	.	4cc
4B-	.	2b-	4dd
4c	.	.	4ee
2d	[2f	2a	2ff
=3	=3	=3	=3
2B-	2f]	2b-	2dd
1c	1e	2g	1gg
.	.	4cc	.
.	.	4b-	.
2d	[2d	4a	2ff
.	.	4g	.
=4	=4	=4	=4
1A	2d]	1a	1ee
.	4c#	.	.
.	4Bn	.	.
1AA	4c#	4a	1ee
.	2d	4g	.
.	.	8aL	.
.	.	8g	.
.	4c#	8f#i	.
.	.	8eJ	.
=5	=5	=5	=5
2D	2d	2f#	2dd
2d	2f	2a	2dd
2B-	2f	2b-	2ff
2B-	2d	2dd	2ff
=6	=6	=6	=6
1c	1g	2.cc	1ee-
.	.	4b-	.
2d	2.f	4a	2.dd
.	.	4g	.
2D	.	2a	.
.	4e-	.	4cc
=7	=7	=7	=7
2G	4d	2g	2b-
.	4c	.	.
2G	2B-	4b-	4ee-i
.	.	4a	4dd
1E-	2.e-i	4g	4cc
.	.	4f	4b-
.	.	2g	[2b-
.	4d	.	.
=8	=8	=8	=8
1F	4c	2.f	2b-]
.	4B-	.	.
.	2c	.	2a
.	.	4e-	.
2BB-	2B-	2d	2b-
2BB-	2d	2f	2b-
=9	=9	=9	=9
2E-i	2e-	2.g	2b-
2C	2e-	.	2cc
.	.	8fL	.
.	.	8e-iJ	.
1D	2.d	4f	1a
.	.	2g	.
.	4c	4f#i	.
=10	=10	=10	=10
2G	2B-	2g	2b-
2D	2d	2f	4a
.	.	.	4b-
2E-i	4c	2e-	4a
.	4B-	.	4g
2E-	4A	2c	2g
.	4G	.	.
=11	=11	=11	=11
2D	2A	1d	2g
2D	2A	.	2f#
2GG	2G	2d	2g
2G	2G	2g	2b-
=12	=12	=12	=12
2E-	2.c	2g	2cc
2C	.	4f#	2ee-
.	4B-	4e	.
1D	4A	4f#	2.dd
.	4G	2g	.
.	2A	.	.
.	.	4f#	4cc
=13	=13	=13	=13
0G	0G	0g	0bn
==	==	==	==
*-	*-	*-	*-
!!!CNT: Polish
!!!OCY: Poland
!!!LYR: Jan Kochanowski (1530-1584/08/22)
!!!GTL: Melodiae na Psałterz Polski
!!!EFL: 16/150
!!!PPR: Łazarz Andrysowicz
!!!PPP: Kraków
!!!PDT: 1580
!!!YEC: 2015 Marcin Konik
!!!ENC: Marcin Konik
!!!END: 2015/03/06
!!!EED: Marcin Konik
!!!EEV: 2015/03/06
!!!ONB: Translated from MusicXML and edited on 2015/03/06 by Marcin Konik
!!!CharacterEncoding: utf-8
!!muse2ps: i2I150v85,85,85,150Q16
!!title: @{OTL}, @{GTL}, ed. @{ENC}
